X:1
T:Venite Amanti
T:Luca Marenzio
T:Source : Il primo libro delle Villanelle a tre voci---Venetia---G.Vincenzi---1586. Editor : André Vierendeels (11/05/17).
T:Notes : Original clefs :  G2, C2, C4 "Terza impressione" Editorial accidentals above the staff
T:Venite Amanti
T:©
T:©
C:Luca Marenzio
Z:©
%%score [ 1 2 3 ]
L:1/8
Q:1/4=120
M:4/4
K:C
V:1 treble nm="Soprano 1" snm="S 1"
V:2 treble nm="Soprano 2" snm="S 2"
V:3 treble-8 nm="Tenor" snm="T"
V:1
"^1)" d4 c2 c2 | B4 g2 f2- | f2 e2 d2 c2 | d4 c4 :: e2 e4 d2 | ^c3 c c2 d2 |"^-natural" e2 d2 c4 | %7
w: Ve- ni- te'A-|man- ti'a ri-|* mi- rar co-|ste- i,|ch'as- co- sa|tien fra le sue|chio- me d'o-|
w: Ma non mi-|ra- te mol-|* to'il suo bel|vi- so,|che to- sto|fà, s'a- vien ch'al-|tri la mi-|
 B8 | d6 cB | A2 B2 c4- | c2 B2 d4- | d2 A2 A4 | G8 :| %13
w: ro,|fiam- me ca-|te- n'e dar-|* di ond'|_ io mo-|ro.|
w: ri,|strug- ger, lan-|guir, pe- nar,|_ spar- ger|_ so- spi-|ri.|
V:2
"^2)""^1)" G4 E2 ^F2 | G4 G2 A2- | A2 c2 B2 c2- | c2 B2 c4 :: G2 c4 B2 | A3 A A2 B2 | %6
w: Ve- ni- te'A-|man- ti'a ri-|* mi- rar co-|* ste- i,|ch'as- co- sa|tien fra le sue|
w: Mi- ra- te|'oc- chi con|_ fur- ti- vi|_ sguar- di,|che s'al- tra-|men- te fa- te'io'il|
"^-natural" c2 G4 ^F2 | G4 B4- | B2 AG F2 G2 | A6 G2 | G6 A2 | ^F3 E F4 | G8 :| %13
w: ch'io- me d'o-|ro, fiam-|* me ca- te- n'e|dar- di|ond' io|mo- * *|ro.-|
w: so per pro-|va, fe-|* ri- to'in- sa- no,|cie co'al-|tri si|tro- * *|va.|
V:3
"^3)""^1)""^4)" G4 A2 A2 | G4 E2 F2- | F2 C2 G2 A2 | G4 C4 :: c2 c4 G2 | A3 A A2 G2 | %6
w: Ve- ni- te'A-|man- ti'a ri|_ mi- rar co-|ste- i,|ch'as- co- sa|tien fra le sue|
w: Vi- ste le|sue bel- lez-|* ez'al fin fug-|gi- te,|che s'al- cun|fer- ma per ve-|
"^-natural" c2 B2 A4 | G4 G4- | G2 FE D2 E2 | F6 E2 | G6 D2 | D8 | G8 :| %13
w: chio- me d'o-|ro, fiam-|* me ca- te- n'e|dar- di|ond' io|mo-|ro.|
w: der- la'il pas-|so, dol-|* ce si sen- te|tras- for-|ma- re'in|sas-|so.|

